coreui/free/cil-chevron-double-up.svg

<svg xmlns="http://www.w3.org/2000/svg" viewBox="0 0 512 512">
  <path fill="var(--ci-primary-color, currentColor)" d="M259.516,173.771,368.537,282.792,448,203.329,338.979,94.308l.041-.041L270.872,26.118l-4.328-4.3-7-7.085-.067.067h0L191.326,82.953,179.988,94.374,71.033,203.329,150.5,282.792ZM214,105.622,225.334,94.2l34.115-34.115.041.041.067-.067,34.208,34.208-.041.041L402.745,203.329l-34.208,34.208L259.516,128.516,150.5,237.537l-34.207-34.208Z" class="ci-primary"/>
  <path fill="var(--ci-primary-color, currentColor)" d="M338.953,315.408l-68.081-68.081-11.289-11.206-.108-.108-68.149,68.148-11.272,11.356L71.033,424.538,150.5,504,259.516,394.979,368.537,504,448,424.538,338.912,315.45Zm63.792,109.13-34.208,34.207L259.516,349.724,150.5,458.745l-34.207-34.207L214,326.831l11.256-11.34,34.265-34.265,34.316,34.316-.041.041Z" class="ci-primary"/>
</svg>

<svg viewBox="0 0 512 512" xmlns="http://www.w3.org/2000/svg"><g><path d="M259.51 173.771l109.02 109.02 79.46-79.47 -109.03-109.03 .04-.05 -68.15-68.15 -4.33-4.3 -7-7.09 -.07.06v0l-68.16 68.15 -11.34 11.42 -108.96 108.95 79.46 79.46Zm-45.52-68.149l11.33-11.43 34.11-34.12 .04.04 .06-.07 34.2 34.208 -.05.04L402.7 203.31l-34.21 34.208 -109.03-109.03L150.44 237.5 116.23 203.3Z"/><path d="M338.953 315.4l-68.09-68.09 -11.29-11.21 -.11-.11 -68.149 68.14 -11.28 11.35L71 424.5l79.46 79.46 109.01-109.03 109.02 109.02 79.46-79.47 -109.09-109.09Zm63.79 109.13l-34.21 34.2L259.5 349.7 150.48 458.72l-34.21-34.21 97.7-97.71 11.25-11.34 34.26-34.27 34.31 34.31 -.05.04Z"/></g></svg>
